img/service/button-4.svg

<svg width="52" height="52" viewBox="0 0 52 52" fill="none" xmlns="http://www.w3.org/2000/svg">
<rect width="52" height="52" rx="12" fill="#F2F2F7"/>
<g clip-path="url(#clip0_2123_767)">
<path d="M29.4734 21.6325C27.1393 18.1987 24.022 16.3736 22.3895 17.4919C22.2097 17.6185 22.0535 17.7756 21.9279 17.9561C21.9279 17.9692 18.1486 25.6176 18.1486 25.6176L16.0387 27.0471C15.7148 27.2669 15.4374 27.5485 15.2223 27.8756C15.0072 28.2027 14.8587 28.5689 14.7853 28.9535C14.7118 29.338 14.7148 29.7332 14.7941 30.1166C14.8734 30.4999 15.0275 30.8639 15.2475 31.1877L15.3424 31.3275C15.7871 31.9753 16.4693 32.4217 17.241 32.5698C18.0127 32.7179 18.8117 32.5558 19.4646 32.1187L22.8536 37.1112C23.3521 37.7257 24.3095 38.3376 25.491 37.6176C25.7003 37.4819 25.8789 37.3038 26.0151 37.0948C26.1514 36.8859 26.2424 36.6507 26.2822 36.4044C26.3299 36.1595 26.3286 35.9075 26.2784 35.663C26.2281 35.4186 26.1299 35.1865 25.9895 34.9802L23.004 30.5758C23.004 30.5758 30.0615 30.0141 30.0879 30.0035C30.3083 29.9574 30.5172 29.8677 30.7024 29.7398C31.5411 29.1701 31.8418 27.9754 31.5517 26.3745C31.2906 24.9002 30.5495 23.2308 29.4734 21.6325ZM16.1099 30.8079L16.0149 30.6681C15.8632 30.4447 15.7569 30.1935 15.7023 29.9289C15.6477 29.6643 15.6459 29.3915 15.6968 29.1262C15.7478 28.8609 15.8506 28.6083 15.9993 28.3828C16.148 28.1572 16.3397 27.9632 16.5635 27.8119L18.3859 26.5723L20.7912 30.1143L18.9688 31.3539C18.7453 31.5059 18.494 31.6123 18.2293 31.6671C17.9646 31.722 17.6917 31.7241 17.4262 31.6734C17.1607 31.6227 16.9078 31.5201 16.6819 31.3716C16.4561 31.2231 16.2617 31.0316 16.1099 30.8079ZM25.2299 35.4998C25.374 35.7143 25.4272 35.9772 25.3778 36.2308C25.3283 36.4845 25.1803 36.7081 24.9662 36.8528C24.7513 36.997 24.488 37.0503 24.2339 37.0009C23.9798 36.9514 23.7557 36.8034 23.6106 36.589L20.2321 31.6123L21.5903 30.6892L21.949 30.6602L25.2299 35.4998ZM21.6642 29.7556L19.0426 25.8945L21.5429 20.7965C21.7855 22.2286 22.4949 23.9297 23.629 25.5991C24.7631 27.2686 26.0818 28.5556 27.3213 29.3099L21.6642 29.7556ZM29.4444 29.1411C28.1837 29.0594 26.1319 27.6378 24.3939 25.0769C22.6558 22.5161 22.0914 20.0923 22.4791 18.8871C22.5491 18.6608 22.6889 18.4625 22.8783 18.3204C23.0678 18.1783 23.2973 18.0997 23.5341 18.0958C24.7842 18.0958 26.9125 19.5253 28.7007 22.16C29.7081 23.6422 30.4413 25.193 30.6418 26.5486C31.0347 29.1411 29.4444 29.1411 29.4444 29.1411Z" fill="#0F172A" stroke="#0F172A" stroke-width="0.5"/>
<path d="M26.1767 21.7301C25.8536 21.6667 25.5212 21.6683 25.1988 21.7349C24.8763 21.8014 24.5704 21.9316 24.2989 22.1178C24.2489 22.1525 24.2061 22.1966 24.1731 22.2478C24.1402 22.2989 24.1176 22.3561 24.1067 22.4159C24.0958 22.4758 24.0968 22.5372 24.1096 22.5967C24.1225 22.6562 24.1469 22.7126 24.1815 22.7627C24.2162 22.8127 24.2603 22.8554 24.3115 22.8884C24.3626 22.9214 24.4198 22.944 24.4797 22.9549C24.5395 22.9658 24.601 22.9648 24.6605 22.9519C24.72 22.9391 24.7763 22.9147 24.8264 22.88C24.9983 22.7633 25.1916 22.6816 25.3951 22.6396C25.5987 22.5975 25.8085 22.596 26.0126 22.6351C26.2167 22.6741 26.4112 22.753 26.5848 22.8672C26.7585 22.9814 26.9079 23.1287 27.0246 23.3007C27.1413 23.4726 27.223 23.6659 27.2651 23.8694C27.3071 24.073 27.3086 24.2828 27.2696 24.4869C27.2305 24.691 27.1516 24.8855 27.0374 25.0591C26.9232 25.2328 26.7759 25.3822 26.604 25.4989C26.5229 25.5549 26.4618 25.6354 26.4298 25.7286C26.3977 25.8217 26.3963 25.9227 26.4258 26.0168C26.4553 26.1108 26.5141 26.1929 26.5936 26.2511C26.6731 26.3093 26.7692 26.3406 26.8677 26.3402C26.9617 26.342 27.0539 26.3143 27.1314 26.2611C27.5416 25.9832 27.8601 25.5899 28.0466 25.1308C28.2331 24.6718 28.2791 24.1677 28.1788 23.6825C28.0785 23.1972 27.8365 22.7527 27.4834 22.4051C27.1303 22.0576 26.6819 21.8227 26.1952 21.7301H26.1767Z" fill="#0F172A" stroke="#0F172A" stroke-width="0.5"/>
<path d="M30.0431 18.4229H30.0879C30.2021 18.4229 30.3122 18.3805 30.3969 18.304C30.4817 18.2276 30.5351 18.1224 30.5468 18.0088L30.9029 14.5486C30.911 14.4874 30.9067 14.4252 30.8903 14.3657C30.874 14.3062 30.8459 14.2506 30.8076 14.2021C30.7694 14.1537 30.7218 14.1134 30.6678 14.0836C30.6137 14.0539 30.5542 14.0353 30.4928 14.0289C30.4314 14.0226 30.3694 14.0286 30.3103 14.0467C30.2513 14.0647 30.1965 14.0944 30.1492 14.134C30.1018 14.1736 30.0629 14.2223 30.0347 14.2772C30.0065 14.3321 29.9896 14.3921 29.9851 14.4537L29.6316 17.9165C29.6191 18.0382 29.6554 18.1599 29.7325 18.2549C29.8097 18.3498 29.9214 18.4103 30.0431 18.4229Z" fill="#0F172A" stroke="#0F172A" stroke-width="0.5"/>
<path d="M36.0088 17.7108C35.941 17.6086 35.8356 17.5374 35.7155 17.5127C35.5955 17.488 35.4705 17.5118 35.3679 17.5789L32.153 19.6888C32.0695 19.7439 32.0062 19.8247 31.9726 19.9189C31.939 20.0131 31.9369 20.1157 31.9666 20.2112C31.9964 20.3067 32.0564 20.39 32.1375 20.4484C32.2187 20.5069 32.3167 20.5374 32.4167 20.5354C32.51 20.5375 32.6018 20.5118 32.6804 20.4615L35.8954 18.3516C35.9951 18.2815 36.063 18.1747 36.0843 18.0546C36.1055 17.9345 36.0784 17.8109 36.0088 17.7108Z" fill="#0F172A" stroke="#0F172A" stroke-width="0.5"/>
<path d="M36.9925 23.3442L33.2527 22.6717C33.1321 22.65 33.0077 22.6772 32.9071 22.7472C32.8064 22.8171 32.7377 22.9242 32.716 23.0449C32.6943 23.1656 32.7215 23.2899 32.7915 23.3905C32.8615 23.4912 32.9686 23.5599 33.0892 23.5816L36.8264 24.2541H36.9081C37.0257 24.2576 37.1402 24.216 37.2281 24.1378C37.3161 24.0597 37.3709 23.9509 37.3813 23.8337C37.3918 23.7166 37.3571 23.5998 37.2843 23.5074C37.2115 23.4149 37.1062 23.3537 36.9899 23.3363L36.9925 23.3442Z" fill="#0F172A" stroke="#0F172A" stroke-width="0.5"/>
</g>
<defs>
<clipPath id="clip0_2123_767">
<rect width="24" height="24" fill="white" transform="translate(14 14)"/>
</clipPath>
</defs>
</svg>

<svg xmlns="http://www.w3.org/2000/svg" width="52" height="52" fill="none"><rect width="52" height="52" fill="#F2F2F7" rx="12"/><g fill="#0F172A" stroke="#0F172A" stroke-width=".5" clip-path="url(#a)"><path d="M29.473 21.633c-2.334-3.434-5.451-5.26-7.083-4.141-.18.127-.337.284-.462.464 0 .013-3.78 7.662-3.78 7.662l-2.11 1.43a2.98 2.98 0 0 0-.79 4.14l.094.14a2.985 2.985 0 0 0 4.123.79l3.389 4.993c.498.615 1.456 1.227 2.637.507a1.784 1.784 0 0 0 .791-1.214 1.89 1.89 0 0 0-.293-1.424l-2.985-4.404s7.057-.562 7.084-.573c.22-.046.43-.135.614-.263.84-.57 1.14-1.765.85-3.365-.261-1.475-1.003-3.144-2.079-4.742ZM16.11 30.808l-.095-.14a2.055 2.055 0 0 1 .549-2.856l1.822-1.24 2.405 3.542-1.822 1.24a2.056 2.056 0 0 1-2.86-.546Zm9.12 4.692a.976.976 0 0 1-1.62 1.089l-3.378-4.977 1.358-.923.359-.029 3.28 4.84Zm-3.566-5.744-2.621-3.861 2.5-5.098c.242 1.432.952 3.133 2.086 4.802 1.134 1.67 2.453 2.957 3.692 3.71l-5.657.447Zm7.78-.615c-1.26-.082-3.312-1.503-5.05-4.064-1.738-2.56-2.303-4.985-1.915-6.19a1.124 1.124 0 0 1 1.055-.791c1.25 0 3.379 1.43 5.167 4.064 1.007 1.482 1.74 3.033 1.94 4.389.394 2.592-1.197 2.592-1.197 2.592Z"/><path d="M26.177 21.73a2.476 2.476 0 0 0-1.878.388.465.465 0 0 0 .18.837.462.462 0 0 0 .347-.075 1.582 1.582 0 1 1 1.778 2.619.461.461 0 0 0 .264.841.45.45 0 0 0 .263-.079 2.503 2.503 0 0 0-.936-4.53h-.018ZM30.043 18.423h.045a.461.461 0 0 0 .459-.414l.356-3.46a.46.46 0 1 0-.918-.095l-.353 3.462a.462.462 0 0 0 .411.507ZM36.009 17.71a.464.464 0 0 0-.641-.131l-3.215 2.11a.461.461 0 0 0 .264.846.47.47 0 0 0 .263-.073l3.215-2.11a.462.462 0 0 0 .114-.641ZM36.992 23.344l-3.74-.672a.462.462 0 0 0-.163.91l3.737.672h.082a.46.46 0 0 0 .082-.918l.002.008Z"/></g><defs><clipPath id="a"><path fill="#fff" d="M14 14h24v24H14z"/></clipPath></defs></svg>
